Sources/FrostedUI/Resources/Icons.xcassets/leaveReview32.imageset/leave-review-32.svg

<svg width="32" height="32" viewBox="0 0 32 32" fill="none" xmlns="http://www.w3.org/2000/svg" data-fui-icon="true">
  <path
    d="M16.2773 2.25C16.6915 2.25007 17.0273 2.58583 17.0273 3C17.0273 3.41417 16.6915 3.74993 16.2773 3.75H11.2773C7.27328 3.75 4.02734 6.99594 4.02734 11V21C4.02734 25.0041 7.27328 28.25 11.2773 28.25H21.2773C25.2814 28.2499 28.5273 25.004 28.5273 21V16C28.5273 15.5858 28.8631 15.25 29.2773 15.25C29.6915 15.2501 30.0273 15.5858 30.0273 16V21C30.0273 25.8325 26.1098 29.7499 21.2773 29.75H11.2773C6.44485 29.75 2.52734 25.8325 2.52734 21V11C2.52734 6.16751 6.44485 2.25 11.2773 2.25H16.2773ZM23.1055 3.61816C24.5699 2.1537 26.9447 2.1537 28.4092 3.61816C29.8736 5.08264 29.8736 7.45744 28.4092 8.92188L17.9375 19.3926C17.5536 19.7765 17.0646 20.038 16.5322 20.1445L13.5869 20.7334C12.2231 21.0055 11.0206 19.8033 11.293 18.4395L11.8828 15.4951C11.9893 14.9628 12.2509 14.4737 12.6348 14.0898L23.1055 3.61816ZM13.6953 15.1504C13.5208 15.3249 13.4019 15.5471 13.3535 15.7891L12.7646 18.7344C12.7024 19.0486 12.9787 19.325 13.293 19.2627L16.2383 18.6738C16.4802 18.6254 16.7025 18.5065 16.877 18.332L25.4033 9.80566L22.2217 6.62305L13.6953 15.1504ZM27.3486 4.67871C26.47 3.80003 25.0447 3.80003 24.166 4.67871L23.2822 5.5625L26.4648 8.74512L27.3486 7.86133C28.2273 6.98267 28.2272 5.5574 27.3486 4.67871Z"
    fill="currentColor"
  />
</svg>

<svg xmlns="http://www.w3.org/2000/svg" width="32" height="32" fill="none" data-fui-icon="true" viewBox="0 0 32 32"><path fill="currentColor" d="M16.277 2.25a.75.75 0 0 1 0 1.5h-5A7.25 7.25 0 0 0 4.027 11v10a7.25 7.25 0 0 0 7.25 7.25h10a7.25 7.25 0 0 0 7.25-7.25v-5a.75.75 0 0 1 1.5 0v5a8.75 8.75 0 0 1-8.75 8.75h-10A8.75 8.75 0 0 1 2.527 21V11a8.75 8.75 0 0 1 8.75-8.75zm6.828 1.368a3.75 3.75 0 0 1 5.304 5.304l-10.471 10.47a2.75 2.75 0 0 1-1.406.753l-2.945.588a1.95 1.95 0 0 1-2.294-2.294l.59-2.944a2.75 2.75 0 0 1 .752-1.405zm-9.41 11.532a1.25 1.25 0 0 0-.341.64l-.59 2.944a.45.45 0 0 0 .529.529l2.945-.59a1.25 1.25 0 0 0 .639-.341l8.526-8.526-3.181-3.183zM27.35 4.68a2.25 2.25 0 0 0-3.183 0l-.884.883 3.183 3.183.884-.884a2.25 2.25 0 0 0 0-3.182"/></svg>
